dist/img/contacts/telegram.svg

<svg width="56" height="51" viewBox="0 0 56 51" fill="none" xmlns="http://www.w3.org/2000/svg">
<path d="M54.5744 0.992532C54.0005 0.503458 53.3056 0.179912 52.5635 0.0562835C51.8215 -0.0673453 51.0599 0.0135632 50.3599 0.290409L2.63074 19.1437C1.79358 19.4645 1.08447 20.0532 0.612605 20.8191C0.140741 21.585 -0.0677145 22.4857 0.0193367 23.3824C0.0970003 24.2788 0.461504 25.1258 1.05819 25.7962C1.65487 26.4667 2.45158 26.9245 3.32884 27.1011L15.4551 29.5195V44.7581C15.4546 45.5825 15.6977 46.3885 16.1534 47.0737C16.6091 47.7589 17.257 48.2925 18.0147 48.6068C18.5162 48.8098 19.0514 48.9157 19.5919 48.9189C20.1353 48.9208 20.6735 48.8137 21.1752 48.6038C21.6769 48.394 22.1319 48.0855 22.5136 47.6966L29.236 40.9615L39.3972 49.959C40.1474 50.6245 41.1118 50.994 42.112 50.9992C42.5519 51.0083 42.9898 50.9379 43.4048 50.7912C44.0871 50.5741 44.7012 50.1816 45.1865 49.6525C45.6717 49.1234 46.0112 48.4762 46.1714 47.7747L55.893 5.07524C56.0629 4.33845 56.03 3.569 55.7976 2.84964C55.5653 2.13029 55.1424 1.48824 54.5744 0.992532ZM17.0322 25.5928L4.15621 23.0184L40.2504 8.74188L17.0322 25.5928ZM19.5919 44.7581V32.432L26.1075 38.205L19.5919 44.7581ZM42.1379 46.8385L20.833 27.9852L51.5234 5.69935L42.1379 46.8385Z" fill="#FFFBF5"/>
</svg>

<svg width="56" height="51" fill="none" xmlns="http://www.w3.org/2000/svg"><path d="M54.574.993A4.152 4.152 0 0050.36.29L2.63 19.144a4.09 4.09 0 00-2.017 1.675 4.128 4.128 0 00-.594 2.563 4.172 4.172 0 001.04 2.414 4.131 4.131 0 002.27 1.305l12.126 2.419v15.238c0 .825.243 1.63.698 2.316a4.142 4.142 0 001.862 1.533 4.27 4.27 0 001.577.312 4.065 4.065 0 002.922-1.222l6.722-6.736 10.161 8.998a4.123 4.123 0 002.715 1.04c.44.01.878-.061 1.293-.208a4.108 4.108 0 001.782-1.138c.485-.53.824-1.177.984-1.878l9.722-42.7A4.183 4.183 0 0054.574.993zm-37.542 24.6L4.156 23.018 40.25 8.742l-23.218 16.85zm2.56 19.165V32.432l6.516 5.773-6.516 6.553zm22.546 2.08L20.833 27.986 51.523 5.7l-9.385 41.14z" fill="#FFFBF5"/></svg>
